symbols-de/shields/motorway_4x1.svg

<?xml version="1.0" encoding="UTF-8" standalone="no"?>
<svg
   xmlns:dc="http://purl.org/dc/elements/1.1/"
   xmlns:cc="http://creativecommons.org/ns#"
   xmlns:rdf="http://www.w3.org/1999/02/22-rdf-syntax-ns#"
   xmlns:svg="http://www.w3.org/2000/svg"
   xmlns="http://www.w3.org/2000/svg"
   version="1.1"
   id="svg2"
   viewBox="0 0 33.0 15.0"
   height="100%"
   width="100%">
  <metadata
     id="metadata9">
    <rdf:RDF>
      <cc:Work
         rdf:about="">
        <dc:format>image/svg+xml</dc:format>
        <dc:type
           rdf:resource="http://purl.org/dc/dcmitype/StillImage" />
        <dc:title></dc:title>
      </cc:Work>
    </rdf:RDF>
  </metadata>
  <defs
     id="defs7" />
  <path
     style="fill:#365eaf;fill-opacity:1;stroke:#0528a2;stroke-width:1;stroke-miterlimit:4;stroke-dasharray:none;stroke-opacity:1"
     id="path6"
     d="m 0.50004191,7.4999995 0,-4.8363631 q 0,-0.2545474 0.51612759,-0.3818172 L 16.155914,0.51273297 q 0,-0.01269 0.344084,-0.01269 0.344084,0 0.344084,0.01269 L 31.98383,2.2818192 q 0.516128,0.1272698 0.516128,0.3818172 l 0,9.6727286 q 0,0.254549 -0.516128,0.381818 l -15.139748,1.769084 q 0,0.01269 -0.344084,0.01269 -0.344084,0 -0.344084,-0.01269 L 1.0161696,12.718183 Q 0.50004191,12.590914 0.50004191,12.336365 Z" />
</svg>

<?xml version="1.0" encoding="UTF-8"?>
<svg xmlns="http://www.w3.org/2000/svg" xmlns:xlink="http://www.w3.org/1999/xlink" width="34pt" height="18pt" viewBox="0 0 34 18" version="1.1">
<g id="surface1">
<path style="fill-rule:nonzero;fill:rgb(21.176471%,36.862745%,68.627451%);fill-opacity:1;stroke-width:1;stroke-linecap:butt;stroke-linejoin:miter;stroke:rgb(1.960784%,15.686275%,63.529412%);stroke-opacity:1;stroke-miterlimit:4;" d="M 0.50046 7.5 L 0.50046 2.66276 C 0.50046 2.49349 0.671071 2.366536 1.016085 2.281901 L 16.154986 0.514323 C 16.154986 0.504557 16.268727 0.501302 16.5 0.501302 C 16.731273 0.501302 16.845014 0.504557 16.845014 0.514323 L 31.983915 2.281901 C 32.328929 2.366536 32.49954 2.49349 32.49954 2.66276 L 32.49954 12.33724 C 32.49954 12.50651 32.328929 12.633464 31.983915 12.718099 L 16.845014 14.485677 C 16.845014 14.495443 16.731273 14.498698 16.5 14.498698 C 16.268727 14.498698 16.154986 14.495443 16.154986 14.485677 L 1.016085 12.718099 C 0.671071 12.633464 0.50046 12.50651 0.50046 12.33724 Z M 0.50046 7.5 " transform="matrix(1.030303,0,0,1.2,0,0)"/>
</g>
</svg>
